optimized/20/solid/server.svg

<svg xmlns="http://www.w3.org/2000/svg" viewBox="0 0 20 20">
  <path d="M4.63196 3.53326C4.84778 2.63402 5.65196 2 6.57674 2H13.4231C14.3479 2 15.1521 2.63401 15.3679 3.53325L17.3441 11.7674C16.9303 11.5951 16.4762 11.5 15.9999 11.5H3.99994C3.52368 11.5 3.06963 11.5951 2.65576 11.7674L4.63196 3.53326Z"/>
  <path fill-rule="evenodd" d="M4 13C2.89543 13 2 13.8954 2 15C2 16.1046 2.89543 17 4 17H16C17.1046 17 18 16.1046 18 15C18 13.8954 17.1046 13 16 13H4ZM15.2402 15C15.2402 14.5858 15.576 14.25 15.9902 14.25H16.0002C16.4144 14.25 16.7502 14.5858 16.7502 15V15.01C16.7502 15.4242 16.4144 15.76 16.0002 15.76H15.9902C15.576 15.76 15.2402 15.4242 15.2402 15.01V15ZM12.9902 14.25C12.576 14.25 12.2402 14.5858 12.2402 15V15.01C12.2402 15.4242 12.576 15.76 12.9902 15.76H13.0002C13.4144 15.76 13.7502 15.4242 13.7502 15.01V15C13.7502 14.5858 13.4144 14.25 13.0002 14.25H12.9902Z" clip-rule="evenodd"/>
</svg>

<svg xmlns="http://www.w3.org/2000/svg" viewBox="0 0 20 20" fill="currentColor" aria-hidden="true">
  <path d="M4.632 3.533A2 2 0 016.577 2h6.846a2 2 0 011.945 1.533l1.976 8.234A3.489 3.489 0 0016 11.5H4c-.476 0-.93.095-1.344.267l1.976-8.234z"/>
  <path fill-rule="evenodd" d="M4 13a2 2 0 100 4h12a2 2 0 100-4H4zm11.24 2a.75.75 0 01.75-.75H16a.75.75 0 01.75.75v.01a.75.75 0 01-.75.75h-.01a.75.75 0 01-.75-.75V15zm-2.25-.75a.75.75 0 00-.75.75v.01c0 .414.336.75.75.75H13a.75.75 0 00.75-.75V15a.75.75 0 00-.75-.75h-.01z" clip-rule="evenodd"/>
</svg>
